icons/svg/church.svg

<svg xmlns="http://www.w3.org/2000/svg" version="1.1" baseProfile="full" width="24" height="24" viewBox="0 0 24.00 24.00" xml:space="preserve"><path fill="#000" fill-opacity="1" stroke-linejoin="round" d="M11 2h2v2h2v2h-2v3.4l9 3.6v2l-2-.8V22h-6v-5c0-1.105-.895-2-2-2s-2 .895-2 2v5H4v-7.8L2 15v-2l9-3.6V6H9V4h2V2zM6 20h2v-5l-1-1-1 1v5zm10 0h2v-5l-1-1-1 1v5z"/></svg>

﻿<?xml version="1.0" encoding="utf-8"?>
<!DOCTYPE svg PUBLIC "-//W3C//DTD SVG 1.1//EN" "http://www.w3.org/Graphics/SVG/1.1/DTD/svg11.dtd">
<svg xmlns="http://www.w3.org/2000/svg" xmlns:xlink="http://www.w3.org/1999/xlink" version="1.1" baseProfile="full" width="24" height="24" viewBox="0 0 24.00 24.00" enable-background="new 0 0 24.00 24.00" xml:space="preserve">
	<path fill="#000000" fill-opacity="1" stroke-linejoin="round" d="M 11,2L 13,2L 13,4L 15,4L 15,6L 13,6L 13,9.4L 22,13L 22,15L 20,14.2L 20,22L 14,22L 14,17C 14,15.8954 13.1046,15 12,15C 10.8954,15 10,15.8954 10,17L 10,22L 4,22L 4,14.2L 2,15L 2,13L 11,9.4L 11,6L 9,6L 9,4L 11,4L 11,2 Z M 6,20L 8,20L 8,15L 6.99999,14L 6,15L 6,20 Z M 16,20L 18,20L 18,15L 17,14L 16,15L 16,20 Z "/>
</svg>
